build/Karasa-Jaga/scalable/apps/gnome-power-manager-symbolic.svg

<svg height="16" width="16" xmlns="http://www.w3.org/2000/svg"><g fill="#bebebe"><path d="m4.3125.65625v1.4375h3.375v-1.4375zm-3.3125 1.15625v.90625 10.90625.90625c2.9086155.817632 5.8842483 1.132331 9.03125.28125-.6701585-.140425-1.3229335-.254568-2-.46875-.6019374-.190416-1.1773443-.562849-1.71875-1.0625-1.1666665-.003032-2.3333333-.241476-3.5-.5625v-1.21875a1.283108 1.283108 0 0 1 -.09375-.5v-2a1.283108 1.283108 0 0 1 .09375-.46875v-4.65625c2.1157908.4490195 4.2591635.5957892 6.375 0v1.46875c.6431384-.1157896 1.248687-.2160261 1.8125-.375v-2.25-.90625c-3.2128278.9640521-6.5548087.8948915-10 0z"/><path d="m4 9h2c.900464-2.7525753 3.502212-2.0008848 6-3v1h2.425733c1.000606.6666667.94528 1.3333333 0 2h-2.425733v2h2.425733c1 0 1 2 0 2h-2.425733v1c-2.853521-.927818-4.705913-.411825-6-3h-2z" fill-rule="evenodd"/></g></svg>

<?xml version="1.0" encoding="UTF-8" standalone="no"?>
<!-- Created with Inkscape (http://www.inkscape.org/) -->

<svg
   xmlns:dc="http://purl.org/dc/elements/1.1/"
   xmlns:cc="http://creativecommons.org/ns#"
   xmlns:rdf="http://www.w3.org/1999/02/22-rdf-syntax-ns#"
   xmlns:svg="http://www.w3.org/2000/svg"
   xmlns="http://www.w3.org/2000/svg"
   xmlns:sodipodi="http://sodipodi.sourceforge.net/DTD/sodipodi-0.dtd"
   xmlns:inkscape="http://www.inkscape.org/namespaces/inkscape"
   width="16"
   height="16"
   id="svg2"
   sodipodi:version="0.32"
   inkscape:version="0.48.3.1 r9886"
   version="1.0"
   sodipodi:docname="gnome-power-manager-symbolic.svg"
   inkscape:output_extension="org.inkscape.output.svg.inkscape"
   inkscape:export-filename="/home/matt/.icons/Sirocco/scalable/mimetypes/text-plain.png"
   inkscape:export-xdpi="90"
   inkscape:export-ydpi="90"
   sodipodi:modified="true"
   style="display:inline">
  <sodipodi:namedview
     id="base"
     pagecolor="#ffffff"
     bordercolor="#666666"
     borderopacity="1.0"
     inkscape:pageopacity="0.0"
     inkscape:pageshadow="2"
     inkscape:zoom="16.442211"
     inkscape:cx="24.125765"
     inkscape:cy="9.5270329"
     inkscape:document-units="px"
     inkscape:current-layer="layer1"
     width="128px"
     height="128px"
     inkscape:showpageshadow="false"
     inkscape:window-width="1366"
     inkscape:window-height="696"
     inkscape:window-x="0"
     inkscape:window-y="0"
     showguides="true"
     inkscape:guide-bbox="true"
     showgrid="false"
     inkscape:window-maximized="1">
    <sodipodi:guide
       id="guide2226"
       position="32.637397,117.99844"
       orientation="horizontal" />
    <sodipodi:guide
       id="guide2230"
       position="110,57.402344"
       orientation="vertical" />
    <sodipodi:guide
       id="guide2232"
       position="33.760911"
       orientation="horizontal" />
    <sodipodi:guide
       id="guide2231"
       position="46.774696"
       orientation="horizontal" />
    <inkscape:grid
       enabled="true"
       visible="true"
       id="grid3231"
       type="xygrid" />
    <sodipodi:guide
       orientation="1,0"
       position="100,67.625"
       id="guide2713" />
  </sodipodi:namedview>
  <defs
     id="defs4" />
  <metadata
     id="metadata7">
    <rdf:RDF>
      <cc:Work
         rdf:about="">
        <dc:format>image/svg+xml</dc:format>
        <dc:type
           rdf:resource="http://purl.org/dc/dcmitype/StillImage" />
        <dc:title />
      </cc:Work>
    </rdf:RDF>
  </metadata>
  <g
     style="display:inline"
     inkscape:label="Calque 1"
     id="layer1"
     inkscape:groupmode="layer">
    <g
       id="g4181">
      <path
         id="path10743"
         d="M 4.3125 0.65625 L 4.3125 2.09375 L 7.6875 2.09375 L 7.6875 0.65625 L 4.3125 0.65625 z M 1 1.8125 L 1 2.71875 L 1 13.625 L 1 14.53125 C 3.9086155 15.348882 6.8842483 15.663581 10.03125 14.8125 C 9.3610915 14.672075 8.7083165 14.557932 8.03125 14.34375 C 7.4293126 14.153334 6.8539057 13.780901 6.3125 13.28125 C 5.1458335 13.278218 3.9791667 13.039774 2.8125 12.71875 L 2.8125 11.5 A 1.283108 1.283108 0 0 1 2.71875 11 L 2.71875 9 A 1.283108 1.283108 0 0 1 2.8125 8.53125 L 2.8125 3.875 C 4.9282908 4.3240195 7.0716635 4.4707892 9.1875 3.875 L 9.1875 5.34375 C 9.8306384 5.2279604 10.436187 5.1277239 11 4.96875 L 11 2.71875 L 11 1.8125 C 7.7871722 2.7765521 4.4451913 2.7073915 1 1.8125 z "
         style="text-indent:0;text-transform:none;block-progression:tb;color:#bebebe;fill:#bebebe;fill-opacity:1" />
      <path
         sodipodi:nodetypes="ccccccccccccccc"
         d="M 4,9 6,9 C 6.900464,6.2474247 9.502212,6.9991152 12,6 l 0,1 2.425733,0 c 1.000606,0.6666667 0.94528,1.3333333 0,2 L 12,9 l 0,2 2.425733,0 c 1,0 1,2 0,2 L 12,13 12,14 C 9.146479,13.072182 7.294087,13.588175 6,11 l -2,0 z"
         style="fill:#bebebe;fill-rule:evenodd"
         id="path2182"
         inkscape:connector-curvature="0" />
    </g>
  </g>
</svg>
